X:85
T: Rose in the Heather
M: 6/8
R: jig
K: D
|: A|"D"FAF "A"EFE | "D"DFA BAF | ABd "A"ede | "D"fdB "A"AFE|
|  "D"F2F "A"EFE | "D"DFA BAF | AdB "A"AFE | "D"FDC D2  :|
|: e|"D"fdB ABd | faa afd | "G"g2g "D"fed | "Em"Bcd "A"efg|
|  "D"fdB ABd | faa afa |1"G"bgf "A"ede | "D"fdc d2:|2bgf efg|fdB AFE||D4|]
